X:1
T:Wonderful Peace
T:Haldor Lillenas, 1914
T:Wonderful Peace
T:Public Domain
T:Public Domain
C:Haldor Lillenas, 1914
Z:Public Domain
%%score ( 1 2 ) ( 3 4 )
L:1/8
M:6/8
K:Bb
V:1 treble 
V:2 treble 
V:3 bass 
V:4 bass 
V:1
 [DF][B,D][CE] [DF][DG][DA] | [DB][^CA][CG] [DF]3 | [DF]>[EG][DF] [EA]3 | [EF]>[EG][EF] [DB]3 | %4
w: 1.~Com- ing to Je- sus, my|Sav- ior, I found|Won- der- ful peace,|won- der- ful peace;|
w: 2.~Peace like a riv- er, so|deep and so broad,|Won- der- ful peace,|won- der- ful peace;|
w: 3.~Peace like a ho- ly and|in- fin- ite calm,|Won- der- ful peace,|won- der- ful peace,|
w: 4.~Gone is the bat- tle that|once raged with- in,|Won- der- ful peace,|won- der- ful peace;|
 [DF][B,D][CE] [DF][DG][DA] | [DB][^CA][CG] [DF][DF][DG] | [CA]3 [=EG]3 | [Fc-]3 [Ec]3 || %8
w: Storms in their fur- y may|rage all a- round, I have|peace, sweet|peace. *|
w: Res- ting my soul on the|bos- om of God, I have|peace, sweet|peace. Peace,|
w: Like to the strains of an|ev- en- ing psalm, I have|peace, sweet|peace. *|
w: Je- sus has saved me and|cleansed me from sin, I have|peace, sweet|peace. *|
"^Refrain" [DF]3 [Fd]3 | [=Ed]>[Ec][EB] [EG]3 | [EF]3 [Ec]3 | [Dc]>[DB][DG] [DF]3 | %12
w: ||||
w: peace, won-|der- ful peace, Peace,|peace, glor-|i- ous peace; Since|
w: ||||
w: ||||
 [EG][E^F][EG] [^CB][CA][CG] | [DF][FB][Fd] [Ff][Ge][Fd] | (F2 =E) (_E2 C) | DFE [DB]6 |] %16
w: ||||
w: my Re- deem- er has ran-|somed my soul, I have peace,|sweet * peace. *||
w: ||||
w: ||||
V:2
 x6 | x6 | x6 | x6 | x6 | x6 | x6 | x6 || x6 | x6 | x6 | x6 | x6 | x6 | G3 A3 | B3- x6 |] %16
V:3
 [B,,F,][B,,F,][B,,F,] [B,,B,][B,,B,][B,,B,] | [B,,F,][B,,=E,][B,,E,] (F,2 B,) | %2
 [B,,B,]>[B,,B,][B,,B,] [F,C]3 | [F,A,]>[F,A,][F,A,] [B,,B,]3 | %4
 [B,,F,][B,,F,][B,,F,] [B,,B,][B,,B,][B,,B,] | [B,,F,][B,,=E,][B,,E,] [B,,F,][B,,B,][B,,B,] | %6
 [F,A,]3 [C,B,]3 | [F,A,]6 || [B,,B,]3 [B,,B,]3 | [C,G,]>[C,G,][C,G,] [C,B,]3 | [F,A,]3 [F,A,]3 | %11
 [B,,B,]>[B,,B,][B,,B,] [B,,B,]3 | [E,B,][E,A,][E,B,] [=E,G,][E,A,][E,B,] | %13
 [F,B,][D,B,][B,,B,] [D,B,][C,C][G,=B,] | [G,C]3 [F,C]3 | B,A,G, [B,,F,]6 |] %16
V:4
 x6 | x3 B,,3 | x6 | x6 | x6 | x6 | x6 | x6 || x6 | x6 | x6 | x6 | x6 | x6 | x6 | B,,3- x6 |] %16

